X: 23023
T: Last Night's Fun
R: reel
M: 4/4
K: Dmajor
|:AD (3FED A3B|AD (3FED EFGB|AD (3FED A2 Bd|1 egfe dBBd:|2 egfe dBAB||
df (3fff af (3fff|defd egfe|df (3fff af (3fff|egfe dBAB|
df (3fff af (3fff|defd e2fg|a3b afeg|f2ed BcdB||

